X: 1
T: Hambo efter Bengt Jonsson
R: hambo
S: labelled "[6/95] NY" by Karen Myers
M: 3/4
L: 1/8
K: G
|:\
"G"(B>d) g>(B d)>c | (B>d) g>(B d)>B | "D7"(3(cdc) (A>f) A>f |\
[1,3 "G"g2 (f>e) d>c :|2 "G"g2 g4 :|4 "G"g2 g2 B>d ||
|:\
"D7"c2 B2 A2 | "G"(G>B) D>(G B)>(G | "D7"F<A) D>(F A)>F |\
[1,3 "G"(G>B) (D>G) B>d :|2 "G"G2 G2 B>d :|4 "G"G2 G4 |]
